X: 76
T:Miss Monahan's Reel
M:C|
A:Ireland
R:reel
B:Fiddler's Fakebook
Z:WM Nov 1996
K:D
|: "D"D2 (3FED FAAF |"G" B2 BG "D" FAAc | dedB ABde |"A" fedf eABA |
"D" D2 (3GED FAAF | "G" B2 BG "D"FA A2 | dedB ABdB |1 "A"AFEA "D"D2 FE :|2 "A" AFEA "D" D4 ||
|: "D"faab afdf |"G" (3gag fa eBBc | "D" dedB ABde | "A"fedf efge |
"D"faab afdf |"G" (3gag fa eBBc | "D"dedB ABdB |"A" AFEA "D" D4 :|
